Catalina-dark/status/16/weather-showers-symbolic.svg

<?xml version="1.0" encoding="UTF-8" standalone="no"?>
<!-- Created with Inkscape (http://www.inkscape.org/) -->

<svg
   xmlns:osb="http://www.openswatchbook.org/uri/2009/osb"
   xmlns:dc="http://purl.org/dc/elements/1.1/"
   xmlns:cc="http://creativecommons.org/ns#"
   xmlns:rdf="http://www.w3.org/1999/02/22-rdf-syntax-ns#"
   xmlns:svg="http://www.w3.org/2000/svg"
   xmlns="http://www.w3.org/2000/svg"
   xmlns:sodipodi="http://sodipodi.sourceforge.net/DTD/sodipodi-0.dtd"
   xmlns:inkscape="http://www.inkscape.org/namespaces/inkscape"
   sodipodi:docname="weather-showers-symbolic.svg"
   inkscape:export-filename="/home/sam/source-symbolic.png"
   inkscape:export-xdpi="270"
   inkscape:export-ydpi="270"
   height="16"
   id="svg7384"
   style="enable-background:new"
   version="1.1"
   inkscape:version="0.91 r13725"
   width="16.000196">
  <sodipodi:namedview
     inkscape:bbox-nodes="true"
     inkscape:bbox-paths="true"
     bordercolor="#666666"
     borderlayer="false"
     borderopacity="1"
     inkscape:current-layer="svg7384"
     inkscape:cx="9.0041738"
     inkscape:cy="8.0774406"
     gridtolerance="10"
     inkscape:guide-bbox="true"
     guidetolerance="10"
     id="namedview88"
     inkscape:object-nodes="true"
     inkscape:object-paths="true"
     objecttolerance="10"
     pagecolor="#f7f7f7"
     inkscape:pageopacity="1"
     inkscape:pageshadow="2"
     showborder="true"
     showgrid="false"
     showguides="true"
     inkscape:showpageshadow="false"
     inkscape:snap-bbox="true"
     inkscape:snap-bbox-edge-midpoints="false"
     inkscape:snap-bbox-midpoints="false"
     inkscape:snap-center="false"
     inkscape:snap-global="true"
     inkscape:snap-grids="true"
     inkscape:snap-intersection-paths="true"
     inkscape:snap-midpoints="true"
     inkscape:snap-nodes="true"
     inkscape:snap-object-midpoints="true"
     inkscape:snap-others="true"
     inkscape:snap-page="false"
     inkscape:snap-smooth-nodes="true"
     inkscape:snap-to-guides="true"
     inkscape:window-height="701"
     inkscape:window-maximized="0"
     inkscape:window-width="1362"
     inkscape:window-x="0"
     inkscape:window-y="28"
     inkscape:zoom="32">
    <inkscape:grid
       color="#000000"
       dotted="false"
       empcolor="#0800ff"
       empopacity="0.4627451"
       empspacing="4"
       enabled="true"
       id="grid4866"
       opacity="0.16470588"
       originx="-244px"
       originy="-548.00336px"
       snapvisiblegridlinesonly="true"
       spacingx="0.25px"
       spacingy="0.25px"
       type="xygrid"
       visible="true" />
  </sodipodi:namedview>
  <metadata
     id="metadata90">
    <rdf:RDF>
      <cc:Work
         rdf:about="">
        <dc:format>image/svg+xml</dc:format>
        <dc:type
           rdf:resource="http://purl.org/dc/dcmitype/StillImage" />
        <dc:title>Paper Symbolic Icon Theme</dc:title>
      </cc:Work>
    </rdf:RDF>
  </metadata>
  <title
     id="title8473">Paper Symbolic Icon Theme</title>
  <defs
     id="defs7386">
    <linearGradient
       id="linearGradient5606"
       osb:paint="solid">
      <stop
         id="stop5608"
         offset="0"
         style="stop-color:#000000;stop-opacity:1;" />
    </linearGradient>
    <filter
       id="filter7554-8"
       color-interpolation-filters="sRGB">
      <feBlend
         id="feBlend7556-7"
         in2="BackgroundImage"
         mode="darken" />
    </filter>
    <filter
       id="filter7554-8-1"
       color-interpolation-filters="sRGB">
      <feBlend
         id="feBlend7556-7-9"
         in2="BackgroundImage"
         mode="darken" />
    </filter>
  </defs>
  <path
     style="fill:#bebebe;fill-opacity:1"
     d="m 6.2124588,9.8823298 c 0.2890909,0.07636 0.4636363,0.3763642 0.3872727,0.6654552 L 5.8906406,13.18233 C 5.8142766,13.476876 5.5142769,13.645966 5.225186,13.569603 4.9306406,13.493243 4.7615497,13.193239 4.8488224,12.904148 L 5.5470042,10.269603 C 5.6233682,9.9750568 5.9233679,9.8059658 6.2124588,9.8823298"
     id="path10066"
     inkscape:connector-curvature="0" />
  <path
     style="fill:#bebebe;fill-opacity:1"
     d="m 8.3942769,9.8823298 c 0.289091,0.07636 0.4636364,0.3763642 0.3872728,0.6654552 l -1.1290909,4.216363 c -0.076364,0.3 -0.3763637,0.463637 -0.6709091,0.387273 C 6.6924588,15.064151 6.5179133,14.775057 6.594277,14.480512 L 7.7288224,10.269603 C 7.8051864,9.9750568 8.105186,9.8059658 8.3942769,9.8823298"
     id="path10064"
     inkscape:connector-curvature="0" />
  <path
     style="fill:#bebebe;fill-opacity:1"
     d="m 10.576095,9.8823298 c 0.289091,0.07636 0.463637,0.3763642 0.387273,0.6654552 L 10.254277,13.18233 C 10.177917,13.476876 9.8779128,13.645966 9.5888224,13.569603 9.2942769,13.493243 9.125186,13.193239 9.2124588,12.904148 l 0.698182,-2.634545 C 9.9870008,9.9750568 10.287004,9.8059658 10.576095,9.8823298"
     id="path10062"
     inkscape:connector-curvature="0" />
  <path
     style="fill:#bebebe;fill-opacity:1"
     d="m 10.727273,8.7090701 0,-0.588634 A 2.7272727,2.9431699 0 0 0 8,5.1772671 c -1.3636363,0 -2.4818182,1.071313 -2.6945456,2.466375 -0.1799999,-0.07063 -0.3763635,-0.111839 -0.5781817,-0.111839 a 1.6363636,1.7659019 0 0 0 -1.6363636,1.765902 c 0,0.653384 0.3272727,1.2243579 0.8181818,1.5304469 l 0,-0.006 c 0.2727273,0.164818 0.3490909,0.535658 0.2018182,0.80643 -0.1527273,0.276657 -0.4745455,0.376725 -0.7472727,0.211908 l 0,0.006 C 2.5454545,11.340264 2,10.386677 2,9.2977051 a 2.7272727,2.9431699 0 0 1 2.7272727,-2.94317 c 0.5454546,-1.383289 1.8,-2.354536 3.2727273,-2.354536 1.870909,0 3.403636,1.565767 3.545454,3.549464 l 0.272728,-0.01765 A 2.1818181,2.3545359 0 0 1 14,9.8863491 c 0,0.8829519 -0.436363,1.6305169 -1.090909,2.0366739 l 0,0 c -0.272728,0.158928 -0.594546,0.06474 -0.747273,-0.217799 -0.147273,-0.282545 -0.07091,-0.64161 0.201818,-0.806428 l 0,0.006 c 0.327273,-0.200202 0.545455,-0.582815 0.545455,-1.0184029 a 1.0909091,1.177268 0 0 0 -1.090909,-1.177323 l -1.090909,0 z"
     id="path10031"
     inkscape:connector-curvature="0" />
</svg>

<svg width="16" height="16" enable-background="new" version="1.1" xmlns="http://www.w3.org/2000/svg">
<path d="m6.2125 9.8823c0.28909 0.07636 0.46364 0.37636 0.38727 0.66546l-0.70909 2.6345c-0.076364 0.29455-0.37636 0.46364-0.66545 0.38727-0.29455-0.07636-0.46364-0.37636-0.37636-0.66546l0.69818-2.6345c0.076364-0.29455 0.37636-0.46364 0.66545-0.38727" fill="#bebebe"/>
<path d="m8.3943 9.8823c0.28909 0.07636 0.46364 0.37636 0.38727 0.66546l-1.1291 4.2164c-0.076364 0.3-0.37636 0.46364-0.67091 0.38727-0.28909-0.08727-0.46364-0.37636-0.38727-0.67091l1.1345-4.2109c0.076364-0.29455 0.37636-0.46364 0.66545-0.38727" fill="#bebebe"/>
<path d="m10.576 9.8823c0.28909 0.07636 0.46364 0.37636 0.38727 0.66546l-0.70909 2.6345c-0.07636 0.29455-0.37636 0.46364-0.66545 0.38727-0.29455-0.07636-0.46364-0.37636-0.37636-0.66546l0.69818-2.6345c0.07636-0.29455 0.37636-0.46364 0.66545-0.38727" fill="#bebebe"/>
<path d="m10.727 8.7091v-0.58863a2.7273 2.9432 0 0 0-2.7273-2.9432c-1.3636 0-2.4818 1.0713-2.6945 2.4664-0.18-0.07063-0.37636-0.11184-0.57818-0.11184a1.6364 1.7659 0 0 0-1.6364 1.7659c0 0.65338 0.32727 1.2244 0.81818 1.5304v-6e-3c0.27273 0.16482 0.34909 0.53566 0.20182 0.80643-0.15273 0.27666-0.47455 0.37672-0.74727 0.21191v6e-3c-0.81818-0.50623-1.3636-1.4598-1.3636-2.5488a2.7273 2.9432 0 0 1 2.7273-2.9432c0.54545-1.3833 1.8-2.3545 3.2727-2.3545 1.8709 0 3.4036 1.5658 3.5455 3.5495l0.27273-0.01765a2.1818 2.3545 0 0 1 2.1818 2.3545c0 0.88295-0.43636 1.6305-1.0909 2.0367-0.27273 0.15893-0.59455 0.06474-0.74727-0.2178-0.14727-0.28254-0.07091-0.64161 0.20182-0.80643v6e-3c0.32727-0.2002 0.54546-0.58282 0.54546-1.0184a1.0909 1.1773 0 0 0-1.0909-1.1773h-1.0909z" fill="#bebebe"/>
</svg>
